!! 00000] TT[WS
!!!OTL: Bai nian
!!!ARE: Asia, China,ÿShanxi Heshun
!! Ethnic Group: Han
!! WI, 193 (1)
!!!SCT: J0229
!!!YEM: Copyright 1995, estate of Helmut Schaffrath.
**kern
*ICvox
*Ivox
*M2/4
*k[b-]
*F:
{4ff
8dd
8cc
=1
4ff
8dd
8cc
=2
8ff
8dd
8ff
8gg
=3
2cc}
=4
{8cc
4ff
8dd
=5
8cc
8dd
4cc
=6
4ff
8a
8g
=7
4f
4r}
=8
{8cc
8dd
4cc
=9
8f
8g
4f
=10
8cc
4cc
8dd
=11
2cc}
=12
{8cc
4cc
8ff
=13
4cc
4cc
=14
8ff
8ff
8a
8g
=15
8f
4b-
8g
=16
2f}
==
!!!AGN: Xiaodiao, Fengsuge
!!!ONB: ESAC (Essen Associative Code) Database: CHINA
!!!AMT: simple duple
!!!AIN: vox
!!!EED: Helmut Schaffrath
!!!EEV: 1.0
*-
